X: 15113
T: Ghost Of Ballybrolly, The
R: jig
M: 6/8
K: Eminor
|:ABB eBe-|edB ~A3|AGE G2B|E B/c/d ~e3|
[1~B3 eBe|edB ~A3|AGE ~G3|AED ~E3||
[2 ged BAB|edB A2A|AGE ~G3|AED E3:|
|:cGE E2 c|BGA {D}E2d|AFD DEF|GAB dBe|
[1 cGE E2 c|BGA {D}E2d|AFD DEF|~E3 FGA:|
[2 -edB e2g|deB- Bed|BAA ABd|ez2 g3||

